X:1
T:Title
%%score { ( 1 3 ) | ( 2 4 ) }
L:1/8
Q:1/4=87
M:6/8
K:Eb
V:1 treble nm="Grand Piano"
V:3 treble 
V:2 bass 
V:4 bass 
V:1
 GGG [GB][GB][GB] | EEE G3 | GGG BGE | [DF]6 | GGG [GB][GB][GB] | EEE G3 | %6
w: J.~M.~Black * * * * *||||||
 [DF][DF][DF] [FA][EG][DF] | E6 | ccc AAc | B3 z3 | [GB][FA][EG] [DF][EG][FA] | G3 .B3 | %12
w: ||||||
 [EAc][EAc][EAc] [CAe][EAd][EAc] | [EAc][EGB][EGB] [EGB]3 | [EGB][B,FA][B,EG] [B,DF][B,DG][A,DF] | %15
w: |||
 [G,E]6 |] %16
w: |
V:2
 [E,B,E][E,B,E][E,B,E] [E,E][E,E][E,E] | [E,G,][E,G,][E,G,] [E,B,E]3 | %2
 [E,B,E][E,B,E][E,B,E] [E,G,E][E,B,E][E,G,] | [B,,B,]6 | [E,B,E][E,B,E][E,B,E] [E,E][E,E][E,E] | %5
 [E,G,][E,G,][E,G,] [E,B,E]3 | [B,,B,][B,,B,][B,,B,] [B,,B,][B,,B,][B,,A,] | [E,G,]6 | %8
 [A,E][A,E][A,E] [A,CE][A,CE][A,E] | E6 | [B,,B,][B,,B,][B,,B,] [B,,B,][B,,B,][B,,B,] | B,3 z3 | %12
 A,,A,,A,, A,,A,,A,, | E,E,E, E,3 | B,,B,,B,, B,,B,,B,, | E,6 |] %16
V:3
 x6 | x6 | x6 | x6 | x6 | x6 | x6 | x6 | x6 | z G,G, .G3 | x6 | x6 | x6 | x6 | x6 | x6 |] %16
V:4
 x6 | x6 | x6 | x6 | x6 | x6 | x6 | x6 | x6 | [E,G,]E,E, .[E,B,]3 | x6 | [E,E]3- [E,G,E]3 | x6 | %13
 x6 | x6 | x6 |] %16

